svg/blobs-icons/no-decorations/barrier.svg

<svg xmlns="http://www.w3.org/2000/svg" xmlns:xlink="http://www.w3.org/1999/xlink" preserveAspectRatio="xMidYMid" width="216" height="178" viewBox="0 0 216 178"><defs><style>.cls-3{fill:#142a3b}.cls-5{fill:#060606;opacity:.35}.cls-6{fill:#ededed}</style></defs><g id="group-71svg"><path d="M215.552 69.841s-215.54.0-215.54.0S.012.005.012.005s215.54.0 215.54.0.0 69.836.0 69.836z" id="path-1" class="cls-3" fill-rule="evenodd"/><path d="M215.552 137.23s-215.54.0-215.54.0.0-69.838.0-69.838 215.54.0 215.54.0.0 69.838.0 69.838z" id="path-2" class="cls-3" fill-rule="evenodd"/><path d="M215.552 79.102S.012 71.264.012 71.264s0-3.872.0-3.872 215.54.0 215.54.0.0 11.71.0 11.71z" id="path-3" class="cls-5" fill-rule="evenodd"/><path d="M190.09 34.923c0 4.414-3.57900000000001 7.993-7.994 7.993S174.103 39.337 174.103 34.923c0-4.415 3.578-7.994 7.993-7.994s7.994 3.579 7.994 7.994z" id="path-4" class="cls-6" fill-rule="evenodd"/><path d="M47.976 34.923c0 4.414-3.579 7.993-7.994 7.993S31.988 39.337 31.988 34.923c0-4.415 3.579-7.994 7.994-7.994s7.994 3.579 7.994 7.994z" id="path-5" class="cls-6" fill-rule="evenodd"/><path d="M47.23 31.594C47.698 32.61 47.976 33.732 47.976 34.923c0 4.414-3.579 7.994-7.994 7.994C38.79 42.917 37.669 42.638 36.653 42.171 37.918 44.917 40.678 46.836 43.901 46.836c4.415.0 7.994-3.579 7.994-7.994C51.895 35.619 49.978 32.859 47.23 31.594z" id="path-6" class="cls-5" fill-rule="evenodd"/><path d="M190.09 102.311C190.09 106.726 186.511 110.306 182.096 110.306S174.103 106.726 174.103 102.311C174.103 97.897 177.681 94.318 182.096 94.318S190.09 97.897 190.09 102.311z" id="path-7" class="cls-6" fill-rule="evenodd"/><path d="M189.344 98.982C189.812 99.999 190.09 101.12 190.09 102.311 190.09 106.726 186.511 110.306 182.096 110.306 180.904 110.306 179.784 110.028 178.768 109.56 180.032 112.306 182.793 114.224 186.015 114.224 190.43 114.224 194.01 110.645 194.01 106.23 194.01 103.007 192.091 100.247 189.344 98.982z" id="path-8" class="cls-5" fill-rule="evenodd"/><path d="M189.344 31.854C189.812 32.87 190.09 33.991 190.09 35.182c0 4.415-3.57900000000001 7.995-7.994 7.995C180.904 43.177 179.784 42.898 178.768 42.43 180.032 45.177 182.793 47.095 186.015 47.095 190.43 47.095 194.01 43.516 194.01 39.101c0-3.222-1.91899999999998-5.982-4.666-7.247z" id="path-9" class="cls-5" fill-rule="evenodd"/><path d="M46.305 98.982C46.773 99.999 47.051 101.12 47.051 102.311 47.051 106.726 43.472 110.306 39.057 110.306 37.865 110.306 36.745 110.028 35.728 109.56c1.265 2.746 4.026 4.664 7.248 4.664C47.39 114.224 50.97 110.645 50.97 106.23 50.97 103.007 49.052 100.247 46.305 98.982z" id="path-10" class="cls-5" fill-rule="evenodd"/><path d="M47.976 102.311C47.976 106.726 44.397 110.306 39.982 110.306S31.988 106.726 31.988 102.311C31.988 97.897 35.567 94.318 39.982 94.318S47.976 97.897 47.976 102.311z" id="path-11" class="cls-6" fill-rule="evenodd"/><path d="M168.181 177.124S161.178 177.124 161.178 177.124s0-46.561.0-46.561S168.181 130.563 168.181 130.563s0 46.561.0 46.561z" id="path-12" class="cls-3" fill-rule="evenodd"/><path d="M61.595 177.124s-7.002.0-7.002.0.0-46.561.0-46.561 7.002.0 7.002.0.0 46.561.0 46.561z" id="path-13" class="cls-3" fill-rule="evenodd"/></g></svg>

<svg xmlns="http://www.w3.org/2000/svg" xmlns:xlink="http://www.w3.org/1999/xlink" preserveAspectRatio="xMidYMid" width="216" height="178" viewBox="0 0 216 178">
  <defs>
    <style>

      .cls-3 {
        fill: #142a3b;
      }

      .cls-5 {
        fill: #060606;
        opacity: 0.35;
      }

      .cls-6 {
        fill: #ededed;
      }
    </style>
  </defs>
  <g id="group-71svg">
    <path d="M215.552,69.841 C215.552,69.841 0.012,69.841 0.012,69.841 C0.012,69.841 0.012,0.005 0.012,0.005 C0.012,0.005 215.552,0.005 215.552,0.005 C215.552,0.005 215.552,69.841 215.552,69.841 Z" id="path-1" class="cls-3" fill-rule="evenodd"/>
    <path d="M215.552,137.230 C215.552,137.230 0.012,137.230 0.012,137.230 C0.012,137.230 0.012,67.392 0.012,67.392 C0.012,67.392 215.552,67.392 215.552,67.392 C215.552,67.392 215.552,137.230 215.552,137.230 Z" id="path-2" class="cls-3" fill-rule="evenodd"/>
    <path d="M215.552,79.102 C215.552,79.102 0.012,71.264 0.012,71.264 C0.012,71.264 0.012,67.392 0.012,67.392 C0.012,67.392 215.552,67.392 215.552,67.392 C215.552,67.392 215.552,79.102 215.552,79.102 Z" id="path-3" class="cls-5" fill-rule="evenodd"/>
    <path d="M190.090,34.923 C190.090,39.337 186.511,42.916 182.096,42.916 C177.681,42.916 174.103,39.337 174.103,34.923 C174.103,30.508 177.681,26.929 182.096,26.929 C186.511,26.929 190.090,30.508 190.090,34.923 Z" id="path-4" class="cls-6" fill-rule="evenodd"/>
    <path d="M47.976,34.923 C47.976,39.337 44.397,42.916 39.982,42.916 C35.567,42.916 31.988,39.337 31.988,34.923 C31.988,30.508 35.567,26.929 39.982,26.929 C44.397,26.929 47.976,30.508 47.976,34.923 Z" id="path-5" class="cls-6" fill-rule="evenodd"/>
    <path d="M47.230,31.594 C47.698,32.610 47.976,33.732 47.976,34.923 C47.976,39.337 44.397,42.917 39.982,42.917 C38.790,42.917 37.669,42.638 36.653,42.171 C37.918,44.917 40.678,46.836 43.901,46.836 C48.316,46.836 51.895,43.257 51.895,38.842 C51.895,35.619 49.978,32.859 47.230,31.594 Z" id="path-6" class="cls-5" fill-rule="evenodd"/>
    <path d="M190.090,102.311 C190.090,106.726 186.511,110.306 182.096,110.306 C177.681,110.306 174.103,106.726 174.103,102.311 C174.103,97.897 177.681,94.318 182.096,94.318 C186.511,94.318 190.090,97.897 190.090,102.311 Z" id="path-7" class="cls-6" fill-rule="evenodd"/>
    <path d="M189.344,98.982 C189.812,99.999 190.090,101.120 190.090,102.311 C190.090,106.726 186.511,110.306 182.096,110.306 C180.904,110.306 179.784,110.028 178.768,109.560 C180.032,112.306 182.793,114.224 186.015,114.224 C190.430,114.224 194.010,110.645 194.010,106.230 C194.010,103.007 192.091,100.247 189.344,98.982 Z" id="path-8" class="cls-5" fill-rule="evenodd"/>
    <path d="M189.344,31.854 C189.812,32.870 190.090,33.991 190.090,35.182 C190.090,39.597 186.511,43.177 182.096,43.177 C180.904,43.177 179.784,42.898 178.768,42.430 C180.032,45.177 182.793,47.095 186.015,47.095 C190.430,47.095 194.010,43.516 194.010,39.101 C194.010,35.879 192.091,33.119 189.344,31.854 Z" id="path-9" class="cls-5" fill-rule="evenodd"/>
    <path d="M46.305,98.982 C46.773,99.999 47.051,101.120 47.051,102.311 C47.051,106.726 43.472,110.306 39.057,110.306 C37.865,110.306 36.745,110.028 35.728,109.560 C36.993,112.306 39.754,114.224 42.976,114.224 C47.390,114.224 50.970,110.645 50.970,106.230 C50.970,103.007 49.052,100.247 46.305,98.982 Z" id="path-10" class="cls-5" fill-rule="evenodd"/>
    <path d="M47.976,102.311 C47.976,106.726 44.397,110.306 39.982,110.306 C35.567,110.306 31.988,106.726 31.988,102.311 C31.988,97.897 35.567,94.318 39.982,94.318 C44.397,94.318 47.976,97.897 47.976,102.311 Z" id="path-11" class="cls-6" fill-rule="evenodd"/>
    <path d="M168.181,177.124 C168.181,177.124 161.178,177.124 161.178,177.124 C161.178,177.124 161.178,130.563 161.178,130.563 C161.178,130.563 168.181,130.563 168.181,130.563 C168.181,130.563 168.181,177.124 168.181,177.124 Z" id="path-12" class="cls-3" fill-rule="evenodd"/>
    <path d="M61.595,177.124 C61.595,177.124 54.593,177.124 54.593,177.124 C54.593,177.124 54.593,130.563 54.593,130.563 C54.593,130.563 61.595,130.563 61.595,130.563 C61.595,130.563 61.595,177.124 61.595,177.124 Z" id="path-13" class="cls-3" fill-rule="evenodd"/>
  </g>
</svg>
